X: 1
T: Johnny Lad
R: march
Z: 2005 John Chambers <jc:trillian.mit.edu>
M: C|
L: 1/4
K: C
e2 \
| "C"ec cG | "C"Gc cc | "Dm"dd A4 | "Dm"d3 d \
| "G7"d>e fd | "G7"BB BA | "F"GA "G7"GF | "C"E4 "G7"E F ||
| "C"G2 ccd | "C"e2 dc | "Dm"d>A AA | "Dm"A3 d \
| "G7"d>e fd | "G7"BB BA | "C"GG "G7"AB | "C"c3 |]
